X: 28383
T: Muiñeira De Vilanova
R: jig
M: 6/8
K: Gmajor
|:g2f egf|d2e cAF|A2G GAB|cBA dBG|
g2f egf|d2e cAF|A2G GAB|cBA G3:|
|:dB/c/d GBd|g3 e2c|cBc Acd|f3 d2B|
dB/c/d GBd|g3 e2c|e3 ded|1 cBA B2G:|2 cBA G3||
|:GBd g3|agf e2d|Bcd d2c|ABc c2B|
GBd g3|agf e2d|Bcd ded|cBA G3:|

